X: 0
T: The Warlocks
C: Robert Lowe
O: Scotland
R: strathspey
M: 4/4
L: 1/8
K: Emin
e|:"Em"B<E G>F E2 (3EFG|"D"A<B A>F D2 (3DEF|"Em"G>E F>D E<e e>f|1 "G"g>e "D"(3fed "Em"B<ee>e:|2 "G"g>e "D"(3fed "Em"B<ee>B||
"Em"(3efg B>g e<Bg>e|"D"(3fga d>a f<d a>f|"Em"(3efg B>g e<B g>e|"G"d>B "D"A<F "Em"E2 E>B|
"Em"(3efg B>g e<Bg>e|"D"(3fga d>af<d a>f|"Em"(3efg "D"f>e d>B A>F|"G"G>B "D"A<F "Em"E2 E2||